X:14
T: ACH MAEDCHEN NUR EINEN BLICK
N: E0628
O: Europa, Mitteleuropa, Deutschland, Thueringen
R: Liebes - Lied, Scherz - Lied
M: 6/8
L: 1/16
K: G
D2 | B3AG2G2F2G2 | A8z2
D2 | c3BA2A2d2c2 | B8z2
d2 | d3cB2B2A2G2 | c4e2g2f2
e2 | d3ed2c2B2A2 | G8z2

